X: 231675
T: Wheels of the World
T: Day After the Fair 
S: "Roche Collection of Traditional Irish Music" p38/84
L: 1/8
M: 6/8
R: jig
K: Em
BGE BGE | BGE EFG | AFD AFD | AFD DEF |
G3 A3 | bcd e2f | gfe dBA | BGE EGA :|
B3 Bc>A | BGE EFG | A3 AB>G | AFD DEF |
G3 A3 | Bcd e2f | gfe dBA | BGE EGA :|
